Newaita-dark/apps/22/com.github.rkoesters.xkcd-gtk.svg

<svg height="22" viewBox="0 0 22 22" width="22" xmlns="http://www.w3.org/2000/svg" xmlns:xlink="http://www.w3.org/1999/xlink"><linearGradient id="a"><stop offset="0" stop-opacity=".313726"/><stop offset=".222222" stop-opacity=".27451"/><stop offset="1" stop-opacity="0"/></linearGradient><radialGradient id="b" cx="450.908936" cy="189.579361" gradientTransform="matrix(.00000012 -.0537161 -.0966889 -.00000007 30.609667 43.721789)" gradientUnits="userSpaceOnUse" r="21.166656" xlink:href="#a"/><radialGradient id="c" cx="450.908936" cy="189.579361" gradientTransform="matrix(-.00000012 .0537161 .0966889 .00000007 -8.779457 -5.175144)" gradientUnits="userSpaceOnUse" r="21.166656" xlink:href="#a"/><radialGradient id="d" cx="450.908936" cy="189.579361" gradientTransform="matrix(-.00000012 -.0537161 .0966889 -.00000007 -8.779457 43.721789)" gradientUnits="userSpaceOnUse" r="21.166656" xlink:href="#a"/><radialGradient id="e" cx="450.908936" cy="189.579361" gradientTransform="matrix(.00000012 .0537161 -.0966889 .00000007 30.609666 -5.175144)" gradientUnits="userSpaceOnUse" r="21.166656" xlink:href="#a"/><linearGradient id="f" gradientTransform="matrix(.00918504 0 0 .0429729 8.569953 9.239164)" gradientUnits="userSpaceOnUse" x1="255.323059" x2="255.323044" y1="233.5" y2="254.666656"><stop offset="0" stop-opacity=".27451"/><stop offset="1" stop-opacity="0"/></linearGradient><linearGradient id="g" gradientUnits="userSpaceOnUse" x1="12.73430315838" x2="12.73430315838" y1="19.27333515" y2="1.99106697081"><stop offset="0" stop-color="#bdbdbd"/><stop offset="1" stop-color="#e0e0e0"/></linearGradient><linearGradient id="h" gradientTransform="matrix(.00984662 -.00568495 .00568495 .00984662 -4.048502 6.488141)" gradientUnits="userSpaceOnUse" x1="960" x2="960" y1="1695.118164" y2="175.118134"><stop offset="0" stop-color="#424242"/><stop offset="1" stop-color="#616161"/></linearGradient><path d="m12.507812 19.273438h1.816407v-.910157h-1.816407zm0 0" fill="url(#b)"/><path d="m9.324219 19.273438h-1.820313v.910156h1.820313zm0 0" fill="url(#c)"/><path d="m9.324219 19.273438h-1.820313v-.910157h1.820313zm0 0" fill="url(#d)"/><path d="m12.507812 19.273438h1.816407v.910156h-1.816407zm0 0" fill="url(#e)"/><path d="m9.324219 19.046875h3.183593v1.136719h-3.183593zm0 0" fill="url(#f)"/><path d="m10.914062 1.992188c4.773438 0 8.640626 3.867187 8.640626 8.640624 0 4.773438-3.867188 8.640626-8.640626 8.640626-4.769531 0-8.640624-3.867188-8.640624-8.640626 0-4.773437 3.871093-8.640624 8.640624-8.640624zm0 0" fill="url(#g)"/><path d="m10.914062 19.273438c-4.785156 0-8.640624-3.855469-8.640624-8.640626 0-.027343 0-.058593 0-.085937.046874 4.75 3.882812 8.558594 8.640624 8.558594 4.761719 0 8.597657-3.808594 8.640626-8.558594v.085937c0 4.785157-3.851563 8.640626-8.640626 8.640626zm0 0" fill-opacity=".196078"/><path d="m10.914062 1.992188c-4.785156 0-8.640624 3.851562-8.640624 8.640624v.085938c.046874-4.75 3.882812-8.558594 8.640624-8.558594 4.761719 0 8.597657 3.808594 8.640626 8.558594 0-.03125 0-.058594 0-.085938 0-4.789062-3.851563-8.640624-8.640626-8.640624zm0 0" fill="#fff" fill-opacity=".392157"/><path d="m10.914062 1.925781c-4.820312 0-8.703124 3.882813-8.703124 8.707031 0 4.820313 3.882812 8.703126 8.703124 8.703126 4.824219 0 8.707032-3.882813 8.707032-8.703126 0-4.824218-3.882813-8.707031-8.707032-8.707031zm0 .128907c4.753907 0 8.578126 3.824218 8.578126 8.578124 0 4.75-3.824219 8.574219-8.578126 8.574219-4.75 0-8.574218-3.824219-8.574218-8.574219 0-4.753906 3.824218-8.578124 8.574218-8.578124zm0 0" fill="#212121"/><path d="m7.21875 9.632812c-.433594.253907-.582031.808594-.332031 1.242188l.910156 1.578125-1.96875 1.136719c-.21875.125-.292969.402344-.167969.621094s.402344.292968.621094.164062l2.757812-1.589844 4.726563-2.730468 2.757813-1.589844c.21875-.128906.292968-.402344.164062-.621094-.125-.21875-.402344-.292969-.621094-.167969l-1.96875 1.136719-.910156-1.574219c-.25-.4375-.804688-.585937-1.242188-.332031zm0 0" fill="url(#h)"/><path d="m12.421875 6.78125c-.160156-.003906-.324219.035156-.476563.125l-4.726562 2.726562c-.34375.199219-.511719.589844-.4375.960938.050781-.246094.203125-.472656.4375-.609375l4.726562-2.730469c.4375-.253906.992188-.101562 1.242188.332032l.910156 1.578124 1.96875-1.140624c.21875-.125.496094-.050782.621094.167968.011719.019532.019531.035156.027344.054688.054687-.128906.046875-.277344-.027344-.402344-.125-.21875-.402344-.292969-.621094-.167969l-1.96875 1.136719-.910156-1.574219c-.164062-.289062-.460938-.449219-.765625-.457031zm-4.777344 5.757812-1.816406 1.050782c-.203125.113281-.28125.359375-.191406.566406.035156-.089844.101562-.167969.191406-.21875l1.96875-1.136719zm0 0" fill="#fff" fill-opacity=".235294"/><path d="m16.648438 8.359375c-.035157.039063-.078126.074219-.125.105469l-2.757813 1.589844-4.726563 2.730468-2.757812 1.589844c-.195312.113281-.441406.066406-.578125-.105469-.117187.144531-.140625.347657-.042969.515625.125.21875.402344.292969.621094.167969l2.757812-1.59375 4.726563-2.726563 2.757813-1.59375c.21875-.125.292968-.402343.164062-.621093-.011719-.019531-.023438-.039063-.039062-.058594zm-9.835938 2.347656c-.082031.238281-.0625.511719.074219.746094l.660156 1.140625.25-.140625-.910156-1.578125c-.03125-.054688-.054688-.109375-.074219-.167969zm0 0" fill-opacity=".235294"/><path d="m167.983958 9.160412c-10.089945 5.908527-13.544161 18.816385-7.726535 28.90633l21.179796 36.723766-45.813807 26.45202c-5.090423 2.908813-6.817531 9.362742-3.908717 14.453165 2.908813 5.090423 9.362742 6.817531 14.453165 3.817817l64.17569-36.996467 109.989496-63.539387 64.17569-36.996467c5.090423-2.999713 6.817531-9.362742 3.817817-14.453165-2.908813-5.090423-9.362742-6.817531-14.453165-3.908718l-45.813807 26.45202-21.179796-36.632866c-5.817626-10.180846-18.725484-13.635061-28.90633-7.726534zm0 0" fill="none" stroke="#212121" stroke-linecap="round" stroke-linejoin="round" stroke-width="3" transform="matrix(.0429729 0 0 .0429729 0 9.239163)"/></svg>

<?xml version="1.0" encoding="UTF-8"?>
<svg xmlns="http://www.w3.org/2000/svg" xmlns:xlink="http://www.w3.org/1999/xlink" width="22px" height="22px" viewBox="0 0 22 22" version="1.1">
<defs>
<radialGradient id="radial0" gradientUnits="userSpaceOnUse" cx="450.908936" cy="189.579361" fx="450.908936" fy="189.579361" r="21.166656" gradientTransform="matrix(0.000000119742,-0.0537161,-0.0966889,-0.0000000698078,30.609667,43.721789)">
<stop offset="0" style="stop-color:rgb(0%,0%,0%);stop-opacity:0.313726;"/>
<stop offset="0.222222" style="stop-color:rgb(0%,0%,0%);stop-opacity:0.27451;"/>
<stop offset="1" style="stop-color:rgb(0%,0%,0%);stop-opacity:0;"/>
</radialGradient>
<radialGradient id="radial1" gradientUnits="userSpaceOnUse" cx="450.908936" cy="189.579361" fx="450.908936" fy="189.579361" r="21.166656" gradientTransform="matrix(-0.000000119742,0.0537161,0.0966889,0.0000000698078,-8.779457,-5.175144)">
<stop offset="0" style="stop-color:rgb(0%,0%,0%);stop-opacity:0.313726;"/>
<stop offset="0.222222" style="stop-color:rgb(0%,0%,0%);stop-opacity:0.27451;"/>
<stop offset="1" style="stop-color:rgb(0%,0%,0%);stop-opacity:0;"/>
</radialGradient>
<radialGradient id="radial2" gradientUnits="userSpaceOnUse" cx="450.908936" cy="189.579361" fx="450.908936" fy="189.579361" r="21.166656" gradientTransform="matrix(-0.000000119742,-0.0537161,0.0966889,-0.0000000698078,-8.779457,43.721789)">
<stop offset="0" style="stop-color:rgb(0%,0%,0%);stop-opacity:0.313726;"/>
<stop offset="0.222222" style="stop-color:rgb(0%,0%,0%);stop-opacity:0.27451;"/>
<stop offset="1" style="stop-color:rgb(0%,0%,0%);stop-opacity:0;"/>
</radialGradient>
<radialGradient id="radial3" gradientUnits="userSpaceOnUse" cx="450.908936" cy="189.579361" fx="450.908936" fy="189.579361" r="21.166656" gradientTransform="matrix(0.000000119742,0.0537161,-0.0966889,0.0000000698078,30.609666,-5.175144)">
<stop offset="0" style="stop-color:rgb(0%,0%,0%);stop-opacity:0.313726;"/>
<stop offset="0.222222" style="stop-color:rgb(0%,0%,0%);stop-opacity:0.27451;"/>
<stop offset="1" style="stop-color:rgb(0%,0%,0%);stop-opacity:0;"/>
</radialGradient>
<linearGradient id="linear0" gradientUnits="userSpaceOnUse" x1="255.323059" y1="233.5" x2="255.323044" y2="254.666656" gradientTransform="matrix(0.00918504,0,0,0.0429729,8.569953,9.239164)">
<stop offset="0" style="stop-color:rgb(0%,0%,0%);stop-opacity:0.27451;"/>
<stop offset="1" style="stop-color:rgb(0%,0%,0%);stop-opacity:0;"/>
</linearGradient>
<linearGradient id="linear1" gradientUnits="userSpaceOnUse" x1="296.333344" y1="233.5" x2="296.333344" y2="-168.666672" gradientTransform="matrix(0.0429729,0,0,0.0429729,0,9.239163)">
<stop offset="0" style="stop-color:rgb(74.117649%,74.117649%,74.117649%);stop-opacity:1;"/>
<stop offset="1" style="stop-color:rgb(87.843138%,87.843138%,87.843138%);stop-opacity:1;"/>
</linearGradient>
<linearGradient id="linear2" gradientUnits="userSpaceOnUse" x1="960" y1="1695.118164" x2="960" y2="175.118134" gradientTransform="matrix(0.00984662,-0.00568495,0.00568495,0.00984662,-4.048502,6.488141)">
<stop offset="0" style="stop-color:rgb(25.882354%,25.882354%,25.882354%);stop-opacity:1;"/>
<stop offset="1" style="stop-color:rgb(38.039216%,38.039216%,38.039216%);stop-opacity:1;"/>
</linearGradient>
</defs>
<g id="surface1">
<path style=" stroke:none;fill-rule:nonzero;fill:url(#radial0);" d="M 12.507812 19.273438 L 14.324219 19.273438 L 14.324219 18.363281 L 12.507812 18.363281 Z M 12.507812 19.273438 "/>
<path style=" stroke:none;fill-rule:nonzero;fill:url(#radial1);" d="M 9.324219 19.273438 L 7.503906 19.273438 L 7.503906 20.183594 L 9.324219 20.183594 Z M 9.324219 19.273438 "/>
<path style=" stroke:none;fill-rule:nonzero;fill:url(#radial2);" d="M 9.324219 19.273438 L 7.503906 19.273438 L 7.503906 18.363281 L 9.324219 18.363281 Z M 9.324219 19.273438 "/>
<path style=" stroke:none;fill-rule:nonzero;fill:url(#radial3);" d="M 12.507812 19.273438 L 14.324219 19.273438 L 14.324219 20.183594 L 12.507812 20.183594 Z M 12.507812 19.273438 "/>
<path style=" stroke:none;fill-rule:nonzero;fill:url(#linear0);" d="M 9.324219 19.046875 L 12.507812 19.046875 L 12.507812 20.183594 L 9.324219 20.183594 Z M 9.324219 19.046875 "/>
<path style=" stroke:none;fill-rule:nonzero;fill:url(#linear1);" d="M 10.914062 1.992188 C 15.6875 1.992188 19.554688 5.859375 19.554688 10.632812 C 19.554688 15.40625 15.6875 19.273438 10.914062 19.273438 C 6.144531 19.273438 2.273438 15.40625 2.273438 10.632812 C 2.273438 5.859375 6.144531 1.992188 10.914062 1.992188 Z M 10.914062 1.992188 "/>
<path style=" stroke:none;fill-rule:nonzero;fill:rgb(0%,0%,0%);fill-opacity:0.196078;" d="M 10.914062 19.273438 C 6.128906 19.273438 2.273438 15.417969 2.273438 10.632812 C 2.273438 10.605469 2.273438 10.574219 2.273438 10.546875 C 2.320312 15.296875 6.15625 19.105469 10.914062 19.105469 C 15.675781 19.105469 19.511719 15.296875 19.554688 10.546875 C 19.554688 10.574219 19.554688 10.605469 19.554688 10.632812 C 19.554688 15.417969 15.703125 19.273438 10.914062 19.273438 Z M 10.914062 19.273438 "/>
<path style=" stroke:none;fill-rule:nonzero;fill:rgb(100%,100%,100%);fill-opacity:0.392157;" d="M 10.914062 1.992188 C 6.128906 1.992188 2.273438 5.84375 2.273438 10.632812 C 2.273438 10.660156 2.273438 10.6875 2.273438 10.71875 C 2.320312 5.96875 6.15625 2.160156 10.914062 2.160156 C 15.675781 2.160156 19.511719 5.96875 19.554688 10.71875 C 19.554688 10.6875 19.554688 10.660156 19.554688 10.632812 C 19.554688 5.84375 15.703125 1.992188 10.914062 1.992188 Z M 10.914062 1.992188 "/>
<path style=" stroke:none;fill-rule:nonzero;fill:rgb(12.941177%,12.941177%,12.941177%);fill-opacity:1;" d="M 10.914062 1.925781 C 6.09375 1.925781 2.210938 5.808594 2.210938 10.632812 C 2.210938 15.453125 6.09375 19.335938 10.914062 19.335938 C 15.738281 19.335938 19.621094 15.453125 19.621094 10.632812 C 19.621094 5.808594 15.738281 1.925781 10.914062 1.925781 Z M 10.914062 2.054688 C 15.667969 2.054688 19.492188 5.878906 19.492188 10.632812 C 19.492188 15.382812 15.667969 19.207031 10.914062 19.207031 C 6.164062 19.207031 2.339844 15.382812 2.339844 10.632812 C 2.339844 5.878906 6.164062 2.054688 10.914062 2.054688 Z M 10.914062 2.054688 "/>
<path style=" stroke:none;fill-rule:nonzero;fill:url(#linear2);" d="M 7.21875 9.632812 C 6.785156 9.886719 6.636719 10.441406 6.886719 10.875 L 7.796875 12.453125 L 5.828125 13.589844 C 5.609375 13.714844 5.535156 13.992188 5.660156 14.210938 C 5.785156 14.429688 6.0625 14.503906 6.28125 14.375 L 9.039062 12.785156 L 13.765625 10.054688 L 16.523438 8.464844 C 16.742188 8.335938 16.816406 8.0625 16.6875 7.84375 C 16.5625 7.625 16.285156 7.550781 16.066406 7.675781 L 14.097656 8.8125 L 13.1875 7.238281 C 12.9375 6.800781 12.382812 6.652344 11.945312 6.90625 Z M 7.21875 9.632812 "/>
<path style=" stroke:none;fill-rule:nonzero;fill:rgb(100%,100%,100%);fill-opacity:0.235294;" d="M 12.421875 6.78125 C 12.261719 6.777344 12.097656 6.816406 11.945312 6.90625 L 7.21875 9.632812 C 6.875 9.832031 6.707031 10.222656 6.78125 10.59375 C 6.832031 10.347656 6.984375 10.121094 7.21875 9.984375 L 11.945312 7.253906 C 12.382812 7 12.9375 7.152344 13.1875 7.585938 L 14.097656 9.164062 L 16.066406 8.023438 C 16.285156 7.898438 16.5625 7.972656 16.6875 8.191406 C 16.699219 8.210938 16.707031 8.226562 16.714844 8.246094 C 16.769531 8.117188 16.761719 7.96875 16.6875 7.84375 C 16.5625 7.625 16.285156 7.550781 16.066406 7.675781 L 14.097656 8.8125 L 13.1875 7.238281 C 13.023438 6.949219 12.726562 6.789062 12.421875 6.78125 Z M 7.644531 12.539062 L 5.828125 13.589844 C 5.625 13.703125 5.546875 13.949219 5.636719 14.15625 C 5.671875 14.066406 5.738281 13.988281 5.828125 13.9375 L 7.796875 12.800781 Z M 7.644531 12.539062 "/>
<path style=" stroke:none;fill-rule:nonzero;fill:rgb(0%,0%,0%);fill-opacity:0.235294;" d="M 16.648438 8.359375 C 16.613281 8.398438 16.570312 8.433594 16.523438 8.464844 L 13.765625 10.054688 L 9.039062 12.785156 L 6.28125 14.375 C 6.085938 14.488281 5.839844 14.441406 5.703125 14.269531 C 5.585938 14.414062 5.5625 14.617188 5.660156 14.785156 C 5.785156 15.003906 6.0625 15.078125 6.28125 14.953125 L 9.039062 13.359375 L 13.765625 10.632812 L 16.523438 9.039062 C 16.742188 8.914062 16.816406 8.636719 16.6875 8.417969 C 16.675781 8.398438 16.664062 8.378906 16.648438 8.359375 Z M 6.8125 10.707031 C 6.730469 10.945312 6.75 11.21875 6.886719 11.453125 L 7.546875 12.59375 L 7.796875 12.453125 L 6.886719 10.875 C 6.855469 10.820312 6.832031 10.765625 6.8125 10.707031 Z M 6.8125 10.707031 "/>
<path style="fill:none;stroke-width:3;stroke-linecap:round;stroke-linejoin:round;stroke:rgb(12.941177%,12.941177%,12.941177%);stroke-opacity:1;stroke-miterlimit:4;" d="M 167.983958 9.160412 C 157.894013 15.068939 154.439797 27.976797 160.257423 38.066742 L 181.437219 74.790508 L 135.623412 101.242528 C 130.532989 104.151341 128.805881 110.60527 131.714695 115.695693 C 134.623508 120.786116 141.077437 122.513224 146.16786 119.51351 L 210.34355 82.517043 L 320.333046 18.977656 L 384.508736 -18.018811 C 389.599159 -21.018524 391.326267 -27.381553 388.326553 -32.471976 C 385.41774 -37.562399 378.963811 -39.289507 373.873388 -36.380694 L 328.059581 -9.928674 L 306.879785 -46.56154 C 301.062159 -56.742386 288.154301 -60.196601 277.973455 -54.288074 Z M 167.983958 9.160412 " transform="matrix(0.0429729,0,0,0.0429729,0,9.239163)"/>
</g>
</svg>
